X:1320
T:I wish I may die if I do.
C:John Malchair's Third Collection of Tunes
F:https://www.vwml.org/record/Malchair/3619/p131
F:www.vwml.org/topics/historic-dance-and-tune-books/Malchair
Z:Eric Conrad Feb 2020
M:6/8
L:1/8
K:D
P:A
A | F2A d2f | ede d2A | F2A d2f | d2 z3 A |
F2A d2e | fed agf | edc B2e | A2 z3 ||
P:B
d | gag g2e | fgf f2d | efg Bcd | d3 c2A |
afa geg | fdf e2A | dcd ede | fef g2e |
fga efg | fga efg | fgf ede | d3 -d2 ||
P:C
A | FGA EFG | FGA E2g | fgf ede | d2A F2A |
FGA EFG | FGA E2g | fgf ede | d3- d2 |]

